img/svg/js-icon.svg

<svg width="120" height="120" viewBox="0 0 120 120" fill="none" xmlns="http://www.w3.org/2000/svg">
<path d="M85.6875 67.0078H9.44531V98.3906H74.2031L85.6875 67.0078ZM42.3984 85.875C42.3984 87.3984 41.9297 88.6172 40.9922 89.5313C40.0547 90.4453 38.8594 90.8906 37.3828 90.8906C35.8125 90.8906 34.5703 90.4922 33.6563 89.6953C32.7422 88.8984 32.2969 87.7266 32.3203 86.1797L32.3438 86.1094H34.9219C34.9219 87.0234 35.1328 87.6797 35.5781 88.125C36.0234 88.5703 36.6094 88.7812 37.3828 88.7812C38.0859 88.7812 38.6484 88.5234 39.0938 87.9844C39.5391 87.4687 39.75 86.7656 39.75 85.875V74.7187H42.3984V85.875V85.875ZM55.9219 89.7187C54.8906 90.5156 53.5313 90.8906 51.8438 90.8906C50.2266 90.8906 48.8203 90.4687 47.6016 89.6016C46.4063 88.7344 45.8203 87.5156 45.8438 85.9453L45.8672 85.875H48.4219C48.4219 86.8359 48.75 87.5625 49.4063 88.0313C50.0625 88.5234 50.8828 88.7578 51.8203 88.7578C52.7578 88.7578 53.4844 88.5703 54.0234 88.1719C54.5391 87.7734 54.7969 87.2344 54.7969 86.5547C54.7969 85.8984 54.5625 85.3359 54.0938 84.9141C53.625 84.4922 52.7813 84.1172 51.5859 83.7656C49.875 83.2969 48.5391 82.6641 47.625 81.8906C46.6875 81.1172 46.2188 80.1094 46.2188 78.8672C46.2188 77.5781 46.7344 76.5234 47.7422 75.6797C48.7734 74.8359 50.0859 74.4375 51.6797 74.4375C53.4141 74.4375 54.7734 74.9063 55.8047 75.8203C56.8359 76.7344 57.3281 77.8828 57.3047 79.2422L57.2813 79.3125H54.7266C54.7266 78.4688 54.4453 77.8125 53.8828 77.2969C53.3203 76.8047 52.5703 76.5469 51.6563 76.5469C50.7656 76.5469 50.0625 76.7578 49.5703 77.1797C49.0781 77.6016 48.8438 78.1406 48.8438 78.8203C48.8438 79.4297 49.1016 79.9453 49.6406 80.3437C50.1797 80.7422 51.0469 81.1172 52.2891 81.4688C53.9531 81.9375 55.2422 82.5703 56.1094 83.3906C56.9766 84.1875 57.4219 85.2188 57.4219 86.4844C57.4688 87.8672 56.9531 88.9219 55.9219 89.7187Z" fill="#F47822"/>
<path d="M82.7109 1.40625H25.1719C23.4609 1.40625 22.0547 2.8125 22.0547 4.52344V64.7109H28.2891V7.64062H82.7109V29.25H104.32V112.359H28.2891V100.688H22.0547V115.477C22.0547 117.188 23.4609 118.594 25.1719 118.594H107.437C109.148 118.594 110.555 117.188 110.555 115.477V29.25L82.7109 1.40625Z" fill="#F47822"/>
<path d="M96 40.1719H36.6094V44.7656H96V40.1719Z" fill="#F47822"/>
<path d="M86.6016 49.1016H36.6094V53.6953H86.6016V49.1016Z" fill="#F47822"/>
</svg>

<svg width="120" height="120" fill="none" xmlns="http://www.w3.org/2000/svg"><path d="M85.688 67.008H9.445V98.39h64.758l11.484-31.383zm-43.29 18.867c0 1.523-.468 2.742-1.406 3.656-.937.914-2.133 1.36-3.61 1.36-1.57 0-2.812-.399-3.726-1.196-.914-.797-1.36-1.968-1.336-3.515l.024-.07h2.578c0 .913.21 1.57.656 2.015.445.445 1.031.656 1.805.656.703 0 1.265-.258 1.71-.797.446-.515.657-1.218.657-2.109V74.719h2.648v11.156zm13.524 3.844c-1.031.797-2.39 1.172-4.078 1.172-1.617 0-3.024-.422-4.242-1.29-1.196-.867-1.782-2.085-1.758-3.656l.023-.07h2.555c0 .96.328 1.688.984 2.156.657.492 1.477.727 2.414.727.938 0 1.664-.188 2.203-.586.516-.399.774-.938.774-1.617 0-.657-.234-1.22-.703-1.64-.469-.423-1.313-.798-2.508-1.15-1.711-.468-3.047-1.1-3.961-1.874-.938-.774-1.406-1.782-1.406-3.024 0-1.289.515-2.344 1.523-3.187 1.031-.844 2.344-1.243 3.938-1.243 1.734 0 3.093.47 4.125 1.383 1.03.914 1.523 2.063 1.5 3.422l-.024.07h-2.554c0-.843-.282-1.5-.844-2.015-.563-.492-1.313-.75-2.227-.75-.89 0-1.593.21-2.086.633-.492.422-.726.96-.726 1.64 0 .61.258 1.125.797 1.524.539.398 1.406.773 2.648 1.125 1.664.469 2.953 1.101 3.82 1.922.868.796 1.313 1.828 1.313 3.093.047 1.383-.469 2.438-1.5 3.235z" fill="#F47822"/><path d="M82.71 1.406H25.173a3.13 3.13 0 00-3.117 3.117v60.188h6.234V7.64h54.422v21.61h21.609v83.109H28.29v-11.671h-6.235v14.789a3.13 3.13 0 003.117 3.117h82.265a3.131 3.131 0 003.118-3.117V29.25L82.711 1.406z" fill="#F47822"/><path d="M96 40.172H36.61v4.594H96v-4.594zm-9.398 8.93H36.609v4.593h49.993v-4.593z" fill="#F47822"/></svg>
